;FLAVOR:Marlin
;TIME:14019
;Filament used: 11.2842m
;Layer height: 0.2
;MINX:119.07
;MINY:94.637
;MINZ:0.2
;MAXX:189.809
;MAXY:177.94
;MAXZ:63.6
;Generated with Cura_SteamEngine 5.2.2
M140 S60
M105
M190 S60
M104 S210
M105
M109 S210
M82 ;absolute extrusion mode
M201 X500.00 Y500.00 Z100.00 E5000.00 ;Setup machine max acceleration
M203 X500.00 Y500.00 Z10.00 E50.00 ;Setup machine max feedrate
M204 P500.00 R1000.00 T500.00 ;Setup Print/Retract/Travel acceleration
M205 X8.00 Y8.00 Z0.40 E5.00 ;Setup Jerk
M220 S100 ;Reset Feedrate
M221 S100 ;Reset Flowrate

G28 ;Home

G92 E0 ;Reset Extruder
G1 Z2.0 F3000 ;Move Z Axis up
G1 X10.1 Y20 Z0.28 F5000.0 ;Move to start position
G1 X10.1 Y200.0 Z0.28 F1500.0 E15 ;Draw the first line
G1 X10.4 Y200.0 Z0.28 F5000.0 ;Move to side a little
G1 X10.4 Y20 Z0.28 F1500.0 E30 ;Draw the second line
G92 E0 ;Reset Extruder
G1 Z2.0 F3000 ;Move Z Axis up

G92 E0
G92 E0
G1 F2700 E-5
;LAYER_COUNT:318
;LAYER:0
M107
G0 F6000 X133.479 Y100.14 Z0.2
;TYPE:SKIRT
G1 F2700 E0
G1 F1200 X134.204 Y99.311 E0.03663
G1 X134.581 Y98.921 E0.05467
G1 X135.155 Y98.357 E0.08144
G1 X135.856 Y97.733 E0.11265
G1 X136.607 Y97.172 E0.14383
G1 X137.642 Y96.547 E0.18404
G1 X138.423 Y96.137 E0.21338
G1 X138.82 Y95.941 E0.22811
G1 X139.678 Y95.562 E0.2593
G1 X140.565 Y95.257 E0.2905
G1 X141.798 Y94.968 E0.33262
G1 X142.342 Y94.873 E0.35099
G1 X143.11 Y94.758 E0.37682
G1 X144.339 Y94.651 E0.41785
G1 X144.965 Y94.637 E0.43867
G1 X147.597 Y94.637 E0.52622
G1 X148.314 Y94.648 E0.55007
G1 X149.538 Y94.736 E0.59088
G1 X150.33 Y94.849 E0.61749
G1 X151.013 Y94.969 E0.64055
G1 X151.929 Y95.17 E0.67175
G1 X152.825 Y95.449 E0.70296
G1 X153.934 Y95.917 E0.74299
G1 X154.434 Y96.161 E0.7615
G1 X155.143 Y96.53 E0.78808
G1 X155.952 Y97.004 E0.81927
G1 X156.718 Y97.546 E0.85048
G1 X157.638 Y98.343 E0.89096
G1 X158.281 Y98.972 E0.92088
G1 X158.588 Y99.288 E0.93553
G1 X159.212 Y99.988 E0.96672
G1 X159.774 Y100.738 E0.99789
G1 X160.268 Y101.529 E1.02891
G1 X160.612 Y102.136 E1.05212
G1 X161.236 Y103.273 E1.09526
G1 X162.502 Y105.435 E1.17859
G1 X163.83 Y107.56 E1.26193
G1 X165.232 Y109.671 E1.34622
G1 X166.686 Y111.731 E1.43008
G1 X168.201 Y113.753 E1.51412
G1 X169.751 Y115.705 E1.59702
G1 X171.382 Y117.644 E1.68129
G1 X173.062 Y119.527 E1.76522
G1 X174.792 Y121.362 E1.8491
G1 X175.767 Y122.352 E1.89532
G1 X177.454 Y124.041 E1.97472
G1 X177.899 Y124.501 E1.996
G1 X178.522 Y125.203 E2.02722
G1 X179.254 Y126.104 E2.06583
G1 X180.877 Y128.176 E2.15337
G1 X181.365 Y128.819 E2.18022
G1 X181.91 Y129.606 E2.21206
G1 X182.533 Y130.6 E2.25108
G1 X183.944 Y132.936 E2.34185
G1 X184.274 Y133.498 E2.36352
G1 X184.744 Y134.39 E2.39706
G1 X185.158 Y135.271 E2.42943
G1 X186.348 Y137.914 E2.52584
G1 X186.614 Y138.526 E2.54803
G1 X186.972 Y139.464 E2.58143
G1 X187.321 Y140.526 E2.61861
G1 X188.11 Y143.058 E2.70682
G1 X188.333 Y143.811 E2.73294
G1 X188.565 Y144.743 E2.76488
G1 X188.759 Y145.702 E2.79742
G1 X189.288 Y148.585 E2.89491
G1 X189.399 Y149.244 E2.91714
G1 X189.519 Y150.216 E2.94971
G1 X189.597 Y151.216 E2.98308
G1 X189.76 Y153.882 E3.07191
G1 X189.805 Y154.829 E3.10345
G1 X189.809 Y155.767 E3.13464
G1 X189.733 Y156.702 E3.16584
G1 X189.577 Y157.626 E3.19701
G1 X189.343 Y158.535 E3.22823
G1 X189.033 Y159.42 E3.25942
G1 X188.648 Y160.275 E3.29061
G1 X188.192 Y161.095 E3.32181
G1 X187.668 Y161.872 E3.35298
G1 X187.079 Y162.603 E3.38421
G1 X186.431 Y163.28 E3.41538
G1 X185.727 Y163.9 E3.44658
G1 X184.973 Y164.457 E3.47776
G1 X184.501 Y164.759 E3.49639
G1 X183.719 Y165.231 E3.52677
G1 X182.872 Y165.725 E3.55939
G1 X180.742 Y167.048 E3.64278
G1 X178.647 Y168.433 E3.72631
G1 X176.589 Y169.88 E3.80999
G1 X174.55 Y171.4 E3.89458
G1 X172.616 Y172.93 E3.9766
G1 X169.772 Y175.337 E4.10052
G1 X169.031 Y175.912 E4.13172
G1 X168.244 Y176.422 E4.16291
G1 X167.416 Y176.863 E4.19411
G1 X166.553 Y177.231 E4.22531
G1 X165.663 Y177.525 E4.25649
G1 X164.75 Y177.742 E4.2877
G1 X163.823 Y177.881 E4.31888
G1 X162.887 Y177.94 E4.35007
G1 X161.949 Y177.919 E4.38128
G1 X161.017 Y177.818 E4.41246
G1 X159.742 Y177.547 E4.45581
G1 X159.167 Y177.382 E4.47571
G1 X155.941 Y176.376 E4.5881
G1 X155.308 Y176.17 E4.61024
G1 X154.367 Y175.815 E4.64369
G1 X153.302 Y175.356 E4.68226
G1 X150.893 Y174.271 E4.77014
G1 X150.209 Y173.952 E4.79524
G1 X149.34 Y173.498 E4.82785
G1 X148.327 Y172.907 E4.86686
G1 X146.135 Y171.581 E4.95207
G1 X145.436 Y171.146 E4.97945
G1 X144.618 Y170.584 E5.01246
G1 X143.698 Y169.887 E5.05085
G1 X141.652 Y168.283 E5.13732
G1 X141.033 Y167.785 E5.16374
G1 X140.291 Y167.129 E5.19668
G1 X139.561 Y166.423 E5.23046
G1 X137.478 Y164.34 E5.32844
G1 X137.055 Y163.904 E5.34864
G1 X136.412 Y163.18 E5.38085
G1 X135.793 Y162.418 E5.4135
G1 X133.99 Y160.118 E5.5107
G1 X133.586 Y159.586 E5.53292
G1 X133.039 Y158.796 E5.56488
G1 X132.501 Y157.942 E5.59845
G1 X131.069 Y155.574 E5.69049
G1 X130.659 Y154.875 E5.71744
G1 X130.203 Y154.01 E5.74997
G1 X129.707 Y152.954 E5.78877
G1 X128.658 Y150.622 E5.87382
G1 X128.321 Y149.846 E5.90196
G1 X127.977 Y148.943 E5.9341
G1 X127.606 Y147.819 E5.97347
G1 X127.177 Y146.44 E6.0215
G1 X126.371 Y143.975 E6.10776
G1 X125.524 Y141.613 E6.19122
G1 X124.62 Y139.3 E6.27381
G1 X123.616 Y136.934 E6.3593
G1 X122.576 Y134.659 E6.4425
G1 X121.485 Y132.444 E6.52462
G1 X121.025 Y131.585 E6.55703
G1 X120.865 Y131.254 E6.56926
G1 X120.333 Y130.236 E6.60746
G1 X119.934 Y129.387 E6.63866
G1 X119.609 Y128.508 E6.66983
G1 X119.36 Y127.603 E6.70105
G1 X119.189 Y126.681 E6.73224
G1 X119.085 Y125.472 E6.7726
G1 X119.07 Y124.714 E6.79782
G1 X119.081 Y123.445 E6.84003
G1 X119.17 Y122.142 E6.88346
G1 X119.279 Y121.381 E6.90903
G1 X119.397 Y120.7 E6.93202
G1 X119.596 Y119.784 E6.9632
G1 X119.873 Y118.887 E6.99442
G1 X120.356 Y117.741 E7.03579
G1 X120.745 Y116.957 E7.0649
G1 X120.959 Y116.552 E7.08013
G1 X121.432 Y115.742 E7.11133
G1 X121.973 Y114.976 E7.14252
G1 X122.561 Y114.275 E7.17295
G1 X123.407 Y113.348 E7.21469
G1 X125.156 Y111.377 E7.30234
G1 X126.773 Y109.446 E7.38611
G1 X128.318 Y107.492 E7.46896
G1 X129.838 Y105.453 E7.55355
G1 X131.275 Y103.41 E7.63662
G1 X132.93 Y100.9 E7.73662
G1 X133.479 Y100.14 E7.7678
G0 F6000 X133.804 Y100.374
G1 F1200 X134.492 Y99.589 E7.80252
G1 X135.115 Y98.952 E7.83215
G1 X135.433 Y98.644 E7.84688
G1 X136.122 Y98.033 E7.87751
G1 X136.861 Y97.484 E7.90813
G1 X137.83 Y96.9 E7.94576
G1 X138.6 Y96.495 E7.97469
G1 X138.997 Y96.299 E7.98942
G1 X139.84 Y95.928 E8.02005
G1 X140.711 Y95.631 E8.05066
G1 X141.866 Y95.362 E8.0901
G1 X142.728 Y95.216 E8.11918
G1 X143.167 Y95.153 E8.13393
G1 X144.351 Y95.051 E8.17346
G1 X144.965 Y95.037 E8.19389
G1 X147.591 Y95.037 E8.28123
G1 X148.308 Y95.048 E8.30508
G1 X149.487 Y95.132 E8.34439
G1 X150.261 Y95.243 E8.3704
G1 X150.944 Y95.363 E8.39346
G1 X151.843 Y95.561 E8.42408
G1 X152.722 Y95.837 E8.45472
G1 X153.759 Y96.277 E8.49219
G1 X154.576 Y96.682 E8.52252
G1 X154.955 Y96.883 E8.53679
G1 X155.749 Y97.35 E8.56743
G1 X156.5 Y97.883 E8.59806
G1 X157.36 Y98.631 E8.63596
G1 X157.994 Y99.251 E8.66546
G1 X158.301 Y99.567 E8.68011
G1 X158.913 Y100.254 E8.71071
G1 X159.463 Y100.992 E8.74133
G1 X159.92 Y101.727 E8.77011
G1 X160.337 Y102.465 E8.79831
G1 X160.884 Y103.464 E8.83619
G1 X162.161 Y105.643 E8.92019
G1 X163.501 Y107.789 E9.00434
G1 X164.905 Y109.902 E9.08872
G1 X166.355 Y111.956 E9.17234
G1 X167.883 Y113.996 E9.25711
G1 X169.448 Y115.966 E9.3408
G1 X171.062 Y117.885 E9.4242
G1 X172.774 Y119.804 E9.50973
G1 X174.512 Y121.648 E9.59401
G1 X175.482 Y122.633 E9.63999
G1 X177.167 Y124.319 E9.71927
G1 X177.612 Y124.779 E9.74056
G1 X178.212 Y125.455 E9.77062
G1 X178.939 Y126.351 E9.809
G1 X180.665 Y128.556 E9.90213
G1 X181.047 Y129.06 E9.92317
G1 X181.571 Y129.819 E9.95384
G1 X182.191 Y130.807 E9.99264
G1 X183.599 Y133.139 E10.08324
G1 X183.929 Y133.701 E10.10492
G1 X184.382 Y134.56 E10.13722
G1 X184.868 Y135.597 E10.17531
G1 X185.926 Y137.947 E10.26103
G1 X186.247 Y138.686 E10.28782
G1 X186.592 Y139.59 E10.32001
G1 X186.939 Y140.645 E10.35694
G1 X187.775 Y143.331 E10.45051
G1 X187.95 Y143.924 E10.47107
G1 X188.173 Y144.822 E10.50185
G1 X188.367 Y145.781 E10.53439
G1 X188.894 Y148.651 E10.63144
G1 X189.005 Y149.31 E10.65367
G1 X189.12 Y150.247 E10.68507
G1 X189.211 Y151.43 E10.72453
G1 X189.369 Y154.054 E10.81196
G1 X189.406 Y154.848 E10.8384
G1 X189.408 Y155.768 E10.869
G1 X189.331 Y156.686 E10.89964
G1 X189.175 Y157.593 E10.93025
G1 X188.941 Y158.483 E10.96086
G1 X188.63 Y159.35 E10.99149
G1 X188.245 Y160.186 E11.02211
G1 X187.789 Y160.986 E11.05273
G1 X187.265 Y161.743 E11.08335
G1 X186.678 Y162.452 E11.11397
G1 X186.031 Y163.107 E11.14459
G1 X185.33 Y163.704 E11.17522
G1 X184.295 Y164.416 E11.217
G1 X183.513 Y164.888 E11.24738
G1 X182.655 Y165.389 E11.28042
G1 X180.541 Y166.702 E11.3632
G1 X178.418 Y168.105 E11.44783
G1 X176.342 Y169.564 E11.53223
G1 X174.309 Y171.081 E11.61659
G1 X172.362 Y172.62 E11.69914
G1 X169.513 Y175.032 E11.8233
G1 X168.785 Y175.596 E11.85393
G1 X168.011 Y176.094 E11.88454
G1 X167.197 Y176.524 E11.91516
G1 X166.349 Y176.881 E11.94576
G1 X165.472 Y177.163 E11.9764
G1 X164.575 Y177.368 E12.007
G1 X163.663 Y177.495 E12.03763
G1 X162.743 Y177.542 E12.06827
G1 X161.823 Y177.509 E12.09889
G1 X160.91 Y177.396 E12.12949
G1 X159.848 Y177.161 E12.16566
G1 X159.286 Y177 E12.18511
G1 X156.065 Y175.996 E12.29732
G1 X155.432 Y175.79 E12.31946
G1 X154.525 Y175.448 E12.3517
G1 X153.466 Y174.991 E12.39006
G1 X151.057 Y173.906 E12.47794
G1 X150.379 Y173.59 E12.50282
G1 X149.541 Y173.152 E12.53427
G1 X148.693 Y172.659 E12.56689
G1 X146.225 Y171.167 E12.66281
G1 X145.647 Y170.807 E12.68546
G1 X144.859 Y170.265 E12.71727
G1 X143.945 Y169.572 E12.75542
G1 X141.899 Y167.968 E12.84189
G1 X141.284 Y167.473 E12.86815
G1 X140.569 Y166.842 E12.89987
G1 X139.839 Y166.136 E12.93364
G1 X137.765 Y164.061 E13.03122
G1 X137.342 Y163.625 E13.05143
G1 X136.723 Y162.927 E13.08246
G1 X135.988 Y162.021 E13.12126
G1 X134.308 Y159.876 E13.21188
G1 X133.904 Y159.344 E13.2341
G1 X133.377 Y158.583 E13.26488
G1 X132.839 Y157.729 E13.29845
G1 X131.411 Y155.367 E13.39026
G1 X131.004 Y154.673 E13.41702
G1 X130.565 Y153.839 E13.44836
G1 X130.072 Y152.789 E13.48694
G1 X128.961 Y150.318 E13.57705
G1 X128.688 Y149.687 E13.59992
G1 X128.357 Y148.817 E13.63088
G1 X127.988 Y147.7 E13.67001
G1 X127.566 Y146.344 E13.71724
G1 X126.751 Y143.853 E13.80441
G1 X125.896 Y141.469 E13.88865
G1 X124.972 Y139.104 E13.9731
G1 X123.99 Y136.789 E14.05674
G1 X122.94 Y134.494 E14.14068
G1 X121.839 Y132.257 E14.22361
G1 X121.378 Y131.396 E14.25609
G1 X121.223 Y131.074 E14.26798
G1 X120.688 Y130.051 E14.30638
G1 X120.297 Y129.217 E14.33701
G1 X119.98 Y128.353 E14.36762
G1 X119.739 Y127.464 E14.39826
G1 X119.576 Y126.558 E14.42887
G1 X119.485 Y125.46 E14.46552
G1 X119.47 Y124.717 E14.49024
G1 X119.481 Y123.448 E14.53245
G1 X119.567 Y122.193 E14.57428
G1 X119.673 Y121.449 E14.59928
G1 X119.791 Y120.768 E14.62227
G1 X119.987 Y119.869 E14.65287
G1 X120.261 Y118.99 E14.68349
G1 X120.715 Y117.917 E14.72225
G1 X120.951 Y117.435 E14.7401
G1 X121.313 Y116.739 E14.76619
G1 X121.778 Y115.944 E14.79682
G1 X122.31 Y115.193 E14.82743
G1 X122.856 Y114.545 E14.85562
G1 X123.718 Y113.6 E14.89816
G1 X125.448 Y111.651 E14.98484
G1 X127.092 Y109.688 E15.07
G1 X128.637 Y107.733 E15.15287
G1 X130.154 Y105.7 E15.23724
G1 X131.609 Y103.63 E15.3214
G1 X133.264 Y101.12 E15.42139
G1 X133.804 Y100.374 E15.45203
G0 F6000 X134.128 Y100.609
G1 F1200 X134.779 Y99.867 E15.48486
G1 X135.156 Y99.477 E15.5029
G1 X135.712 Y98.931 E15.52882
G1 X136.388 Y98.332 E15.55886
G1 X137.114 Y97.795 E15.58889
G1 X138.018 Y97.253 E15.62395
G1 X138.503 Y96.995 E15.64222
G1 X139.175 Y96.658 E15.66722
G1 X140.001 Y96.294 E15.69725
G1 X140.857 Y96.005 E15.7273
G1 X141.935 Y95.756 E15.76409
G1 X142.785 Y95.612 E15.79277
G1 X143.224 Y95.549 E15.80752
G1 X144.363 Y95.451 E15.84554
G1 X144.965 Y95.437 E15.86557
G1 X147.584 Y95.437 E15.95268
G1 X148.301 Y95.448 E15.97653
G1 X149.437 Y95.529 E16.01441
G1 X150.192 Y95.637 E16.03977
G1 X150.875 Y95.757 E16.06284
G1 X151.757 Y95.952 E16.09288
G1 X152.618 Y96.225 E16.12293
G1 X153.583 Y96.636 E16.15781
G1 X154.083 Y96.88 E16.17632
G1 X154.768 Y97.237 E16.20201
G1 X155.546 Y97.695 E16.23203
G1 X156.281 Y98.22 E16.26208
G1 X157.082 Y98.918 E16.29741
G1 X157.707 Y99.529 E16.32648
G1 X158.014 Y99.845 E16.34114
G1 X158.614 Y100.52 E16.37118
G1 X159.152 Y101.246 E16.40123
G1 X159.572 Y101.924 E16.42776
G1 X159.987 Y102.657 E16.45577
G1 X160.547 Y103.678 E16.4945
G1 X161.82 Y105.851 E16.57827
G1 X163.178 Y108.026 E16.66355
G1 X164.572 Y110.124 E16.74733
G1 X166.04 Y112.205 E16.83203
G1 X167.535 Y114.2 E16.91495
G1 X169.145 Y116.226 E17.00102
G1 X170.788 Y118.179 E17.08591
G1 X172.45 Y120.043 E17.16897
G1 X174.25 Y121.953 E17.25626
G1 X175.197 Y122.914 E17.30114
G1 X176.879 Y124.597 E17.38028
G1 X177.324 Y125.057 E17.40156
G1 X177.902 Y125.708 E17.43052
G1 X178.624 Y126.597 E17.46861
G1 X180.247 Y128.669 E17.55615
G1 X180.728 Y129.302 E17.58259
G1 X181.233 Y130.032 E17.61211
G1 X181.752 Y130.857 E17.64453
G1 X183.254 Y133.341 E17.74108
G1 X183.584 Y133.903 E17.76276
G1 X184.02 Y134.73 E17.79385
G1 X184.434 Y135.611 E17.82623
G1 X185.615 Y138.233 E17.92187
G1 X185.881 Y138.845 E17.94407
G1 X186.212 Y139.715 E17.97503
G1 X186.557 Y140.764 E18.01176
G1 X187.391 Y143.444 E18.10511
G1 X187.566 Y144.037 E18.12567
G1 X187.78 Y144.902 E18.15531
G1 X188.01 Y146.042 E18.19399
G1 X188.474 Y148.571 E18.27951
G1 X188.61 Y149.377 E18.3067
G1 X188.721 Y150.278 E18.33689
G1 X188.799 Y151.278 E18.37025
G1 X188.969 Y154.072 E18.46335
G1 X189.006 Y154.866 E18.48979
G1 X189.008 Y155.769 E18.51982
G1 X188.93 Y156.669 E18.54987
G1 X188.773 Y157.558 E18.5799
G1 X188.538 Y158.43 E18.60993
G1 X188.227 Y159.278 E18.63998
G1 X187.841 Y160.095 E18.67003
G1 X187.386 Y160.875 E18.70006
G1 X186.862 Y161.611 E18.73011
G1 X186.276 Y162.298 E18.76015
G1 X185.632 Y162.93 E18.79016
G1 X184.934 Y163.503 E18.82019
G1 X184.088 Y164.074 E18.85414
G1 X183.306 Y164.546 E18.88452
G1 X182.475 Y165.031 E18.91652
G1 X180.306 Y166.377 E19.00143
G1 X178.173 Y167.787 E19.08647
G1 X176.119 Y169.232 E19.17
G1 X174.089 Y170.745 E19.25421
G1 X172.106 Y172.313 E19.33829
G1 X169.255 Y174.727 E19.46254
G1 X168.54 Y175.279 E19.49258
G1 X167.78 Y175.766 E19.5226
G1 X166.979 Y176.184 E19.55266
G1 X166.145 Y176.53 E19.58269
G1 X165.283 Y176.8 E19.61273
G1 X164.401 Y176.993 E19.64276
G1 X163.505 Y177.107 E19.6728
G1 X162.603 Y177.142 E19.70282
G1 X161.701 Y177.096 E19.73286
G1 X160.806 Y176.971 E19.76292
G1 X159.954 Y176.775 E19.792
G1 X159.405 Y176.618 E19.81099
G1 X156.189 Y175.615 E19.92304
G1 X155.556 Y175.409 E19.94518
G1 X154.683 Y175.08 E19.97621
G1 X153.63 Y174.626 E20.01435
G1 X151.089 Y173.481 E20.10704
G1 X150.548 Y173.228 E20.12691
G1 X149.742 Y172.806 E20.15717
G1 X148.894 Y172.313 E20.18979
G1 X146.436 Y170.827 E20.28533
G1 X145.858 Y170.467 E20.30797
G1 X145.1 Y169.946 E20.33857
G1 X144.334 Y169.367 E20.3705
G1 X142.036 Y167.566 E20.46761
G1 X141.535 Y167.162 E20.48902
G1 X140.847 Y166.554 E20.51955
G1 X139.994 Y165.727 E20.55907
G1 X138.052 Y163.783 E20.65046
G1 X137.629 Y163.347 E20.67067
G1 X137.033 Y162.675 E20.70054
G1 X136.303 Y161.774 E20.73911
G1 X134.627 Y159.634 E20.82952
G1 X134.223 Y159.102 E20.85174
G1 X133.716 Y158.37 E20.88135
G1 X133.076 Y157.351 E20.92138
G1 X131.753 Y155.16 E21.0065
G1 X131.349 Y154.471 E21.03307
G1 X130.927 Y153.669 E21.06321
G1 X130.437 Y152.625 E21.10157
G1 X129.388 Y150.293 E21.18662
G1 X129.056 Y149.528 E21.21435
G1 X128.736 Y148.691 E21.24416
G1 X128.428 Y147.763 E21.27668
G1 X127.949 Y146.227 E21.33019
G1 X127.125 Y143.709 E21.41831
G1 X126.274 Y141.336 E21.50216
G1 X125.349 Y138.969 E21.58668
G1 X124.364 Y136.646 E21.67061
G1 X123.291 Y134.302 E21.75635
G1 X122.187 Y132.059 E21.8395
G1 X121.731 Y131.207 E21.87164
G1 X121.584 Y130.901 E21.88293
G1 X121.042 Y129.865 E21.92182
G1 X120.659 Y129.047 E21.95186
G1 X120.35 Y128.199 E21.98188
G1 X120.118 Y127.326 E22.01192
G1 X119.963 Y126.436 E22.04197
G1 X119.885 Y125.448 E22.07493
G1 X119.87 Y124.721 E22.09912
G1 X119.881 Y123.452 E22.14133
G1 X119.964 Y122.244 E22.1816
G1 X120.067 Y121.518 E22.20599
