;FLAVOR:Marlin
;TIME:1008
;Filament used: 0.566749m
;Layer height: 0.2
;MINX:130.622
;MINY:121.044
;MINZ:0.2
;MAXX:173.862
;MAXY:162.546
;MAXZ:12.8
;Generated with Cura_SteamEngine 5.2.2
M140 S60
M105
M190 S60
M104 S210
M105
M109 S210
M82 ;absolute extrusion mode
M201 X500.00 Y500.00 Z100.00 E5000.00 ;Setup machine max acceleration
M203 X500.00 Y500.00 Z10.00 E50.00 ;Setup machine max feedrate
M204 P500.00 R1000.00 T500.00 ;Setup Print/Retract/Travel acceleration
M205 X8.00 Y8.00 Z0.40 E5.00 ;Setup Jerk
M220 S100 ;Reset Feedrate
M221 S100 ;Reset Flowrate

G28 ;Home

G92 E0 ;Reset Extruder
G1 Z2.0 F3000 ;Move Z Axis up
G1 X10.1 Y20 Z0.28 F5000.0 ;Move to start position
G1 X10.1 Y200.0 Z0.28 F1500.0 E15 ;Draw the first line
G1 X10.4 Y200.0 Z0.28 F5000.0 ;Move to side a little
G1 X10.4 Y20 Z0.28 F1500.0 E30 ;Draw the second line
G92 E0 ;Reset Extruder
G1 Z2.0 F3000 ;Move Z Axis up

G92 E0
G92 E0
G1 F2700 E-5
;LAYER_COUNT:64
;LAYER:0
M107
G0 F6000 X145.03 Y126.549 Z0.2
;TYPE:SKIRT
G1 F2700 E0
G1 F1200 X145.755 Y125.718 E0.03668
G1 X146.133 Y125.327 E0.05477
G1 X146.707 Y124.764 E0.08151
G1 X147.408 Y124.14 E0.11272
G1 X148.159 Y123.579 E0.1439
G1 X149.194 Y122.954 E0.18412
G1 X149.996 Y122.533 E0.21424
G1 X150.389 Y122.34 E0.2288
G1 X151.248 Y121.963 E0.26001
G1 X152.136 Y121.661 E0.2912
G1 X153.349 Y121.377 E0.33264
G1 X153.934 Y121.275 E0.35239
G1 X154.654 Y121.167 E0.3766
G1 X155.953 Y121.057 E0.41996
G1 X156.63 Y121.044 E0.44248
G1 X159.149 Y121.045 E0.52627
G1 X159.866 Y121.056 E0.55012
G1 X161.112 Y121.146 E0.59167
G1 X161.887 Y121.257 E0.61771
G1 X162.529 Y121.368 E0.63938
G1 X163.446 Y121.567 E0.67059
G1 X164.342 Y121.843 E0.70177
G1 X165.483 Y122.323 E0.74294
G1 X166.001 Y122.576 E0.76211
G1 X166.682 Y122.93 E0.78764
G1 X167.492 Y123.403 E0.81884
G1 X168.259 Y123.943 E0.85004
G1 X169.199 Y124.757 E0.8914
G1 X169.588 Y125.134 E0.90941
G1 X170.142 Y125.698 E0.93571
G1 X170.766 Y126.399 E0.96692
G1 X171.327 Y127.15 E0.9981
G1 X171.952 Y128.185 E1.03831
G1 X172.373 Y128.987 E1.06844
G1 X172.566 Y129.38 E1.083
G1 X172.943 Y130.239 E1.1142
G1 X173.245 Y131.127 E1.1454
G1 X173.527 Y132.329 E1.18646
G1 X173.628 Y132.905 E1.20591
G1 X173.742 Y133.667 E1.23154
G1 X173.847 Y134.874 E1.27184
G1 X173.862 Y135.625 E1.29682
G1 X173.852 Y136.889 E1.33886
G1 X173.804 Y137.826 E1.37007
G1 X173.677 Y138.755 E1.40125
G1 X173.472 Y139.67 E1.43244
G1 X173.189 Y140.564 E1.46363
G1 X172.831 Y141.431 E1.49483
G1 X172.455 Y142.167 E1.52232
G1 X171.024 Y144.729 E1.61992
G1 X169.851 Y146.979 E1.70432
G1 X168.769 Y149.207 E1.7867
G1 X167.259 Y152.609 E1.91049
G1 X166.848 Y153.585 E1.94572
G1 X166.593 Y154.145 E1.96618
G1 X166.196 Y154.948 E1.99597
G1 X165.989 Y155.342 E2.01078
G1 X165.518 Y156.153 E2.04197
G1 X164.979 Y156.921 E2.07318
G1 X164.15 Y157.881 E2.11536
G1 X163.583 Y158.46 E2.14232
G1 X163.231 Y158.803 E2.15867
G1 X162.532 Y159.429 E2.18987
G1 X161.782 Y159.992 E2.22107
G1 X160.711 Y160.641 E2.26272
G1 X160.208 Y160.908 E2.28166
G1 X159.533 Y161.246 E2.30677
G1 X158.674 Y161.624 E2.33798
G1 X157.787 Y161.927 E2.36916
G1 X156.577 Y162.211 E2.41049
G1 X156.001 Y162.312 E2.42994
G1 X155.253 Y162.424 E2.4551
G1 X154.018 Y162.531 E2.49633
G1 X153.355 Y162.546 E2.51839
G1 X142.171 Y162.545 E2.89037
G1 X141.473 Y162.535 E2.91359
G1 X140.537 Y162.481 E2.94477
G1 X139.609 Y162.349 E2.97595
G1 X138.695 Y162.137 E3.00715
G1 X137.803 Y161.848 E3.03834
G1 X136.938 Y161.485 E3.06954
G1 X136.108 Y161.049 E3.10072
G1 X135.317 Y160.544 E3.13194
G1 X134.573 Y159.973 E3.16313
G1 X133.88 Y159.341 E3.19432
G1 X133.243 Y158.653 E3.22551
G1 X132.668 Y157.912 E3.2567
G1 X132.157 Y157.126 E3.28789
G1 X131.715 Y156.298 E3.3191
G1 X131.346 Y155.436 E3.35029
G1 X131.051 Y154.546 E3.38148
G1 X130.833 Y153.634 E3.41266
G1 X130.693 Y152.706 E3.44388
G1 X130.635 Y151.834 E3.47295
G1 X130.622 Y151.115 E3.49686
G1 X130.632 Y149.88 E3.53794
G1 X130.715 Y148.617 E3.58004
G1 X130.756 Y148.286 E3.59113
G1 X130.834 Y147.762 E3.60875
G1 X130.947 Y147.109 E3.63079
G1 X131.146 Y146.193 E3.66197
G1 X131.423 Y145.297 E3.69316
G1 X131.91 Y144.142 E3.73485
G1 X132.303 Y143.352 E3.7642
G1 X132.528 Y142.929 E3.78014
G1 X133.004 Y142.121 E3.81133
G1 X133.546 Y141.356 E3.84251
G1 X134.119 Y140.676 E3.87209
G1 X134.976 Y139.738 E3.91435
G1 X136.695 Y137.798 E4.00056
G1 X138.325 Y135.853 E4.08496
G1 X139.87 Y133.899 E4.16781
G1 X141.39 Y131.86 E4.2524
G1 X142.837 Y129.802 E4.33608
G1 X144.481 Y127.309 E4.4354
G1 X145.03 Y126.549 E4.46658
G0 F6000 X145.354 Y126.783
G1 F1200 X146.043 Y125.996 E4.50137
G1 X146.421 Y125.605 E4.51946
G1 X146.985 Y125.051 E4.54575
G1 X147.674 Y124.44 E4.57638
G1 X148.413 Y123.891 E4.607
G1 X149.382 Y123.307 E4.64463
G1 X150.172 Y122.892 E4.67431
G1 X150.565 Y122.699 E4.68888
G1 X151.409 Y122.33 E4.71951
G1 X152.281 Y122.035 E4.75013
G1 X153.417 Y121.772 E4.78891
G1 X154.002 Y121.67 E4.80866
G1 X154.711 Y121.563 E4.83251
G1 X155.963 Y121.457 E4.8743
G1 X156.63 Y121.444 E4.89649
G1 X159.143 Y121.445 E4.98007
G1 X159.86 Y121.456 E5.00392
G1 X161.061 Y121.543 E5.04397
G1 X161.819 Y121.651 E5.06944
G1 X162.461 Y121.762 E5.09111
G1 X163.36 Y121.958 E5.12171
G1 X164.24 Y122.231 E5.15236
G1 X165.307 Y122.682 E5.19089
G1 X165.825 Y122.935 E5.21006
G1 X166.495 Y123.284 E5.23519
G1 X167.29 Y123.749 E5.26582
G1 X168.041 Y124.281 E5.29643
G1 X168.921 Y125.044 E5.33517
G1 X169.31 Y125.421 E5.35319
G1 X169.855 Y125.976 E5.37906
G1 X170.466 Y126.665 E5.40969
G1 X171.015 Y127.404 E5.44031
G1 X171.599 Y128.373 E5.47794
G1 X172.014 Y129.163 E5.50762
G1 X172.207 Y129.556 E5.52218
G1 X172.576 Y130.4 E5.55282
G1 X172.871 Y131.272 E5.58343
G1 X173.133 Y132.398 E5.62189
G1 X173.234 Y132.974 E5.64134
G1 X173.346 Y133.723 E5.66652
G1 X173.447 Y134.887 E5.70538
G1 X173.462 Y135.622 E5.72984
G1 X173.452 Y136.886 E5.77188
G1 X173.404 Y137.805 E5.80249
G1 X173.278 Y138.717 E5.83311
G1 X173.072 Y139.615 E5.86375
G1 X172.789 Y140.491 E5.89437
G1 X172.432 Y141.339 E5.92497
G1 X172.106 Y141.972 E5.94865
G1 X170.663 Y144.555 E6.04706
G1 X169.494 Y146.798 E6.13119
G1 X168.417 Y149.014 E6.21314
G1 X166.873 Y152.493 E6.33973
G1 X166.479 Y153.43 E6.37354
G1 X166.234 Y153.969 E6.39323
G1 X165.842 Y154.762 E6.42265
G1 X165.635 Y155.156 E6.43746
G1 X165.172 Y155.952 E6.46808
G1 X164.641 Y156.704 E6.4987
G1 X163.863 Y157.603 E6.53825
G1 X163.304 Y158.174 E6.56482
G1 X162.952 Y158.517 E6.58117
G1 X162.265 Y159.13 E6.61179
G1 X161.528 Y159.681 E6.6424
G1 X160.524 Y160.288 E6.68142
G1 X160.021 Y160.555 E6.70036
G1 X159.356 Y160.887 E6.72508
G1 X158.513 Y161.257 E6.7557
G1 X157.641 Y161.553 E6.78633
G1 X156.508 Y161.817 E6.82502
G1 X155.932 Y161.918 E6.84447
G1 X155.196 Y162.028 E6.86923
G1 X154.006 Y162.131 E6.90895
G1 X153.355 Y162.146 E6.93061
G1 X142.177 Y162.145 E7.30239
G1 X141.479 Y162.135 E7.32561
G1 X140.56 Y162.082 E7.35623
G1 X139.649 Y161.949 E7.38685
G1 X138.753 Y161.738 E7.41747
G1 X137.879 Y161.45 E7.44807
G1 X137.032 Y161.087 E7.47872
G1 X136.221 Y160.652 E7.50933
G1 X135.451 Y160.148 E7.53994
G1 X134.727 Y159.579 E7.57057
G1 X134.055 Y158.949 E7.6012
G1 X133.44 Y158.264 E7.63182
G1 X132.887 Y157.528 E7.66244
G1 X132.4 Y156.747 E7.69305
G1 X131.983 Y155.926 E7.72368
G1 X131.638 Y155.072 E7.75432
G1 X131.369 Y154.192 E7.78492
G1 X131.177 Y153.291 E7.81556
G1 X131.064 Y152.378 E7.84616
G1 X131.035 Y151.823 E7.86464
G1 X131.022 Y151.118 E7.8881
G1 X131.032 Y149.883 E7.92917
G1 X131.112 Y148.666 E7.96974
G1 X131.228 Y147.831 E7.99778
G1 X131.341 Y147.178 E8.01982
G1 X131.537 Y146.278 E8.05046
G1 X131.811 Y145.399 E8.08108
G1 X132.269 Y144.318 E8.12013
G1 X132.498 Y143.851 E8.13743
G1 X132.882 Y143.117 E8.16498
G1 X133.349 Y142.324 E8.19559
G1 X133.883 Y141.574 E8.22621
G1 X134.414 Y140.946 E8.25356
G1 X135.256 Y140.024 E8.29509
G1 X137.003 Y138.054 E8.38267
G1 X138.644 Y136.095 E8.46766
G1 X140.189 Y134.14 E8.55054
G1 X141.706 Y132.107 E8.63491
G1 X143.155 Y130.045 E8.71873
G1 X144.814 Y127.529 E8.81897
G1 X145.354 Y126.783 E8.8496
G0 F6000 X145.678 Y127.018
G1 F1200 X146.331 Y126.274 E8.88252
G1 X146.709 Y125.883 E8.90061
G1 X147.264 Y125.338 E8.92648
G1 X147.94 Y124.739 E8.95652
G1 X148.666 Y124.202 E8.98656
G1 X149.57 Y123.66 E9.02162
G1 X150.349 Y123.251 E9.05088
G1 X150.742 Y123.058 E9.06544
G1 X151.569 Y122.697 E9.09545
G1 X152.425 Y122.409 E9.12549
G1 X153.486 Y122.166 E9.1617
G1 X154.071 Y122.064 E9.18145
G1 X154.768 Y121.959 E9.20489
G1 X155.973 Y121.857 E9.24511
G1 X156.63 Y121.844 E9.26697
G1 X159.136 Y121.845 E9.35032
G1 X159.853 Y121.856 E9.37417
G1 X161.009 Y121.94 E9.41272
G1 X161.751 Y122.045 E9.43764
G1 X162.393 Y122.156 E9.45931
G1 X163.275 Y122.349 E9.48934
G1 X164.137 Y122.62 E9.5194
G1 X165.131 Y123.042 E9.55531
G1 X165.938 Y123.441 E9.58526
G1 X166.309 Y123.637 E9.59921
G1 X167.088 Y124.094 E9.62925
G1 X167.823 Y124.618 E9.65927
G1 X168.643 Y125.331 E9.69541
G1 X169.032 Y125.708 E9.71343
G1 X169.568 Y126.255 E9.7389
G1 X170.167 Y126.931 E9.76894
G1 X170.704 Y127.657 E9.79898
G1 X171.246 Y128.561 E9.83404
G1 X171.655 Y129.34 E9.8633
G1 X171.848 Y129.733 E9.87786
G1 X172.209 Y130.56 E9.90787
G1 X172.497 Y131.416 E9.93791
G1 X172.739 Y132.467 E9.97378
G1 X172.84 Y133.043 E9.99324
G1 X172.95 Y133.78 E10.01802
G1 X173.047 Y134.899 E10.05538
G1 X173.062 Y135.619 E10.07933
G1 X173.052 Y136.883 E10.12137
G1 X173.005 Y137.785 E10.15141
G1 X172.878 Y138.679 E10.18145
G1 X172.673 Y139.558 E10.21147
G1 X172.39 Y140.416 E10.24152
G1 X172.033 Y141.246 E10.27157
G1 X171.757 Y141.777 E10.29147
G1 X170.302 Y144.381 E10.39068
G1 X169.137 Y146.617 E10.47454
G1 X168.055 Y148.844 E10.55689
G1 X166.506 Y152.334 E10.68389
G1 X166.11 Y153.275 E10.71785
G1 X165.875 Y153.794 E10.7368
G1 X165.624 Y154.308 E10.75582
G1 X165.281 Y154.97 E10.78062
G1 X164.826 Y155.75 E10.81065
G1 X164.303 Y156.487 E10.84071
G1 X163.576 Y157.324 E10.87758
G1 X163.231 Y157.68 E10.89407
G1 X162.672 Y158.23 E10.92016
G1 X161.998 Y158.831 E10.95019
G1 X161.274 Y159.37 E10.98021
G1 X160.336 Y159.934 E11.01661
G1 X159.554 Y160.344 E11.04598
G1 X159.18 Y160.528 E11.05985
G1 X158.353 Y160.891 E11.08988
G1 X157.497 Y161.179 E11.11992
G1 X156.439 Y161.423 E11.15604
G1 X155.863 Y161.524 E11.17549
G1 X155.139 Y161.632 E11.19983
G1 X153.994 Y161.731 E11.23806
G1 X153.355 Y161.746 E11.25932
G1 X142.183 Y161.745 E11.6309
G1 X141.485 Y161.735 E11.65412
G1 X140.583 Y161.682 E11.68417
G1 X139.69 Y161.55 E11.71419
G1 X138.812 Y161.339 E11.74423
G1 X137.956 Y161.051 E11.77427
G1 X137.129 Y160.689 E11.80429
G1 X136.337 Y160.254 E11.83435
G1 X135.586 Y159.752 E11.86439
G1 X134.883 Y159.185 E11.89443
G1 X134.233 Y158.558 E11.92447
G1 X133.641 Y157.876 E11.95451
G1 X133.111 Y157.145 E11.98454
G1 X132.649 Y156.369 E12.01457
G1 X132.256 Y155.556 E12.04461
G1 X131.938 Y154.711 E12.07464
G1 X131.695 Y153.841 E12.10468
G1 X131.53 Y152.953 E12.13472
G1 X131.435 Y151.812 E12.1728
G1 X131.422 Y151.121 E12.19579
G1 X131.432 Y149.886 E12.23687
G1 X131.509 Y148.715 E12.2759
G1 X131.622 Y147.899 E12.3033
G1 X131.735 Y147.246 E12.32534
G1 X131.929 Y146.364 E12.35538
G1 X132.199 Y145.502 E12.38542
G1 X132.628 Y144.494 E12.42186
G1 X132.857 Y144.027 E12.43916
G1 X133.235 Y143.305 E12.46626
G1 X133.694 Y142.527 E12.49631
G1 X134.22 Y141.793 E12.52634
G1 X134.709 Y141.216 E12.5515
G1 X135.57 Y140.273 E12.59397
G1 X137.308 Y138.313 E12.6811
G1 X138.931 Y136.376 E12.76515
G1 X140.525 Y134.36 E12.85063
G1 X142.038 Y132.33 E12.93483
G1 X143.473 Y130.289 E13.01782
G1 X145.148 Y127.749 E13.11901
G1 X145.678 Y127.018 E13.14905
G1 F2700 E8.14905
;MESH:motor retainer.stl
G0 F6000 X152.258 Y144.381
G0 X153.637 Y150.946
;TYPE:WALL-INNER
G1 F2700 E13.14905
G1 F1200 X154.48 Y150.812 E13.17744
G1 X155.195 Y150.448 E13.20412
G1 X155.766 Y149.877 E13.23098
G1 X156.128 Y149.163 E13.2576
G1 X156.262 Y148.321 E13.28596
G1 X156.262 Y136.806 E13.66895
G1 X156.301 Y136.59 E13.67625
G1 X156.407 Y136.414 E13.68309
G1 X156.598 Y136.266 E13.69112
G1 X156.783 Y136.206 E13.69759
G1 X162.262 Y136.206 E13.87982
G1 X162.262 Y135.334 E13.90883
G1 X162.262 Y135.265 E13.91112
G1 X162.128 Y134.426 E13.93938
G1 X161.766 Y133.712 E13.96601
G1 X161.195 Y133.142 E13.99284
G1 X160.48 Y132.778 E14.01953
G1 X159.637 Y132.645 E14.04791
G1 X156.277 Y132.645 E14.15967
G1 X155.435 Y132.778 E14.18802
G1 X154.719 Y133.142 E14.21473
G1 X154.149 Y133.712 E14.24154
G1 X153.787 Y134.426 E14.26817
G1 X153.652 Y135.269 E14.29656
G1 X153.652 Y143.656 E14.57552
G1 X153.476 Y144.779 E14.61332
G1 X152.937 Y145.834 E14.65273
G1 X152.102 Y146.669 E14.692
G1 X151.045 Y147.208 E14.73147
G1 X149.925 Y147.384 E14.76918
G1 X144.847 Y147.384 E14.93807
G1 X144.005 Y147.518 E14.96643
G1 X143.289 Y147.882 E14.99314
G1 X142.719 Y148.452 E15.01995
G1 X142.357 Y149.166 E15.04658
G1 X142.222 Y150.009 E15.07498
G1 X142.222 Y150.946 E15.10614
G1 X153.637 Y150.946 E15.4858
G0 F6000 X153.669 Y151.346
;TYPE:WALL-OUTER
G1 F1200 X154.605 Y151.197 E15.51733
G1 X155.433 Y150.776 E15.54822
G1 X156.094 Y150.115 E15.57931
G1 X156.513 Y149.288 E15.61015
G1 X156.662 Y148.353 E15.64164
G1 X156.662 Y136.75 E16.02756
G1 X156.757 Y136.635 E16.03252
G1 X156.827 Y136.608 E16.03501
G1 X162.662 Y136.606 E16.22909
G1 X162.662 Y135.334 E16.27139
G1 X162.662 Y135.233 E16.27475
G1 X162.513 Y134.301 E16.30614
G1 X162.094 Y133.474 E16.33698
G1 X161.433 Y132.814 E16.36805
G1 X160.605 Y132.393 E16.39894
G1 X159.669 Y132.245 E16.43046
G1 X156.245 Y132.245 E16.54434
G1 X155.31 Y132.393 E16.57583
G1 X154.481 Y132.814 E16.60675
G1 X153.821 Y133.474 E16.6378
G1 X153.402 Y134.301 E16.66863
G1 X153.252 Y135.237 E16.70016
G1 X153.25 Y143.639 E16.97961
G1 X153.09 Y144.654 E17.01379
G1 X152.61 Y145.595 E17.04892
G1 X151.862 Y146.342 E17.08408
G1 X150.922 Y146.822 E17.11919
G1 X149.908 Y146.982 E17.15333
G1 X144.815 Y146.984 E17.32273
G1 X143.88 Y147.133 E17.35422
G1 X143.051 Y147.554 E17.38514
G1 X142.391 Y148.214 E17.41618
G1 X141.972 Y149.041 E17.44702
G1 X141.822 Y149.977 E17.47855
G1 X141.822 Y151.346 E17.52408
G1 X153.669 Y151.346 E17.91811
G0 F6000 X153.606 Y150.586
;TYPE:SKIN
G1 F1200 X154.367 Y150.464 E17.94375
G1 X154.98 Y150.153 E17.96661
G1 X155.472 Y149.66 E17.98978
G1 X155.779 Y149.052 E18.01243
G1 X155.876 Y148.445 E18.03288
G1 X155.902 Y148.29 E18.0381
G1 X155.905 Y136.77 E18.42126
G1 X155.964 Y136.459 E18.43179
G1 X156.131 Y136.181 E18.44257
G1 X156.449 Y135.935 E18.45595
G1 X156.725 Y135.848 E18.46557
G1 X161.902 Y135.846 E18.63776
G1 X161.902 Y135.292 E18.65619
G1 X161.779 Y134.536 E18.68166
G1 X161.472 Y133.929 E18.70428
G1 X160.98 Y133.438 E18.7274
G1 X160.369 Y133.127 E18.75021
G1 X159.606 Y133.006 E18.7759
G1 X156.308 Y133.005 E18.88559
G1 X155.548 Y133.127 E18.91119
G1 X154.934 Y133.438 E18.93409
G1 X154.443 Y133.929 E18.95718
G1 X154.136 Y134.538 E18.97987
G1 X154.013 Y135.301 E19.00557
G1 X154.01 Y143.694 E19.28472
G1 X153.846 Y144.747 E19.32017
G1 X153.754 Y145.024 E19.32988
G1 X153.303 Y145.909 E19.36291
G1 X153.142 Y146.134 E19.37211
G1 X152.311 Y146.967 E19.41125
G1 X151.269 Y147.495 E19.4501
G1 X151.055 Y147.568 E19.45762
G1 X149.961 Y147.742 E19.49447
G1 X144.879 Y147.744 E19.66349
G1 X144.117 Y147.867 E19.68917
G1 X143.504 Y148.178 E19.71203
G1 X143.013 Y148.669 E19.73512
G1 X142.706 Y149.278 E19.75781
G1 X142.582 Y150.041 E19.78352
G1 X142.582 Y150.586 E19.80164
G1 X153.606 Y150.586 E20.1683
G0 F6000 X153.734 Y150.829
G0 X142.394 Y150.774
G0 X142.341 Y149.912
G0 X143.031 Y150.385
G1 F1200 X142.781 Y150.135 E20.18006
G0 F6000 X142.849 Y149.637
G1 F1200 X143.597 Y150.385 E20.21525
G0 F6000 X144.162 Y150.385
G1 F1200 X142.971 Y149.193 E20.27129
G0 F6000 X143.16 Y148.817
G1 F1200 X144.728 Y150.385 E20.34505
G0 F6000 X145.294 Y150.385
G1 F1200 X143.436 Y148.527 E20.43244
G0 F6000 X143.751 Y148.276
G1 F1200 X145.859 Y150.385 E20.53162
G0 F6000 X146.425 Y150.385
G1 F1200 X144.126 Y148.086 E20.63976
G0 F6000 X144.597 Y147.991
G1 F1200 X146.991 Y150.385 E20.75236
G0 F6000 X147.556 Y150.385
G1 F1200 X145.114 Y147.943 E20.86723
G0 F6000 X145.68 Y147.943
G1 F1200 X148.122 Y150.385 E20.98209
G0 F6000 X148.688 Y150.385
G1 F1200 X146.245 Y147.942 E21.097
G0 F6000 X146.81 Y147.942
G1 F1200 X149.253 Y150.385 E21.21191
